!!!COM: Palestrina, Giovanni Perluigi da
!!!OPR: Missa Panis quem ego dabo
!!!OMD: Sanctus
!!!OTL: Hosanna
**kern	**kern	**kern	**kern
*Ibass	*Itenor	*Icalto	*Icant
!Bassus	!Tenor	!Altus	!Cantus
*clefF4	*clefGv2	*clefG2	*clefG2
*k[]	*k[]	*k[]	*k[]
*D:dor	*D:dor	*D:dor	*D:dor
*M4/2	*M4/2	*M4/2	*M4/2
=43	=43	=43	=43
0r	0r	1g	1r
.	.	1g	1dd
=44	=44	=44	=44
0r	0r	2d	1dd
.	.	2.d	.
.	.	.	1a
.	.	4e	.
.	.	4f	.
.	.	4g	.
=45	=45	=45	=45
1r	0r	2a	1cc
.	.	2f	.
1G	.	2.b-	1dd
.	.	4a	.
=46	=46	=46	=46
1G	2r	2g	2ee
.	2d	2b-	2dd
2D	1d	2.a	2.ff
[2D	.	.	.
.	.	4g	4ee
=47	=47	=47	=47
4D]	1A	1f	2dd
4E	.	.	.
4F	.	.	2.cc
4G	.	.	.
2A	1c	2e	.
.	.	.	4b
2F	.	[2f	[2a
=48	=48	=48	=48
1B-	1d	2f]	2a]
.	.	4e	2g
.	.	4d	.
2A	2e	2c	[1a
[2D	2d	[2f	.
=49	=49	=49	=49
4D]	2.f	4f]	1a]
4E	.	4e	.
2F	.	4d	.
.	4e	4c	.
2G	2d	2B	1r
[2A	2c	2c	.
=50	=50	=50	=50
2A]	1B	2d	0r
2G	.	2.e	.
2.F	2A	.	.
.	.	4d	.
.	[2d	2d	.
8E	.	.	.
8D	.	.	.
=51	=51	=51	=51
1E	2d]	1.g	1r
.	2c#	.	.
1D	[1d	.	2r
.	.	4f	2dd
.	.	4e	.
=52	=52	=52	=52
2r	1d]	2f	1dd
2d	.	4d	.
.	.	4e	.
1d	1r	4f	2a
.	.	4g	.
.	.	4a	[2a
.	.	4b	.
=53	=53	=53	=53
1A	2r	0cc	4a]
.	.	.	4b
.	2a	.	4cc
.	.	.	4dd
1c	2g	.	2ee
.	2a	.	2cc
=54	=54	=54	=54
1d	2f	2.a	1ff
.	2.a	.	.
.	.	4b	.
2.e	.	2cc	[1ee
.	4g	.	.
.	2g	[2b	.
4d	.	.	.
=55	=55	=55	=55
2c	2e	4b]	2ee]
.	.	4a	.
2d	2f	1a	4dd
.	.	.	4cc
1B	1d	.	1dd
.	.	2g#	.
=56	=56	=56	=56
0A	2e	[0a	2cc
.	1f	.	4a
.	.	.	4b
.	.	.	4cc
.	.	.	4dd
.	4e	.	[2ee
.	4d	.	.
=57	=57	=57	=57
0r	2c	1a]	2ee]
.	2d	.	4dd
.	.	.	4cc
.	1e	2r	2b
.	.	2g	[2cc
=58	=58	=58	=58
1G	2d	1g	2cc]
.	4G	.	1b
.	4A	.	.
1G	4B	2d	.
.	4c	.	.
.	4d	[2d	4a
.	4e	.	4g
=59	=59	=59	=59
1D	4f	4d]	2a
.	4g	4e	.
.	2.a	4f	2dd
.	.	4g	.
1F	.	2a	2cc
.	4f	.	.
.	2a	2f	2ff
=60	=60	=60	=60
1G	2.g	1b-	2ee
.	.	.	1dd
.	4f	.	.
1A	1e	1a	.
.	.	.	2cc#
=61	=61	=61	=61
2.B-	[0d	1f	2.dd
4A	.	.	4cc
2G	.	2g	2b-
2F#	.	2a	2a
=62	=62	=62	=62
0G	1d_	2.b-	2.g
.	.	4a	4a
.	1d_	1g	1b-
=63	=63	=63	=63
0D	0d]	0f#	0a
==	==	==	==
*-	*-	*-	*-
!!!CDT: 1525/^1526/-1594/2/2
!!!OCY: Italia
!!!AGN: Mass (Parody)
!!!AST: renaissance, vocal
!!!ASW: Motet 1532 (Lupus Hellinck)
!!!PWK: Masses, Book 5
!!!RNB: Cadence finals: A
!!!YOR: Le Opere Complete, v. 15, p. 45
!!!YOO: Rome, Italy: Fratelli Scalera
!!!END: 1992//
!!!EED: John Miller
!!!YEC: Copyright 2000, John Miller
!!!YEN: United States of America
!!!YEM: Rights to all derivative electronic formats reserved.
!!!YEM: Refer to licensing agreement for further details.
!!!YEM: This file must be accompanied by the licensing agreement.
!!!YEM: A copy of the licensing agreement may be found at http://www.music-cog.ohio-state.edu/HumdrumDatabases/Palestrina/license.txt
!!!EMD: converted to Humdrum by Bret Aarden
